P2
# 8.0 m x 6.0 m occupancy map matching blender-maps/offline_navigation_arena.py.
# 0 is a wall and 254 is free floor.  It is deliberately small for an offline RViz demo.
20 15
254
0 0 0 0 0 0 0 0 0 0 0 0 0 0 0 0 0 0 0 0
0 254 254 254 254 254 254 254 254 254 254 254 254 254 254 254 254 254 254 0
0 254 254 254 254 254 254 254 254 254 254 254 254 254 254 254 254 254 254 0
0 254 254 254 254 0 254 254 254 254 254 254 254 254 254 254 254 254 254 0
0 254 254 254 254 0 254 254 254 254 254 254 254 254 254 254 254 254 254 0
0 254 254 254 254 0 254 254 254 254 254 254 254 254 254 254 254 254 254 0
0 254 254 254 254 254 254 254 254 254 254 254 0 0 0 0 0 254 254 0
0 254 254 254 254 254 254 254 254 254 254 254 0 254 254 254 254 254 254 0
0 254 254 254 254 0 254 254 254 254 254 254 0 254 254 254 254 254 254 0
0 254 254 254 254 254 254 254 254 254 254 254 0 254 254 254 254 254 254 0
0 254 254 254 254 254 254 254 254 254 254 254 0 254 254 254 254 254 254 0
0 254 254 254 254 0 254 254 254 254 254 254 0 254 254 254 254 254 254 0
0 254 254 254 254 0 254 254 254 254 254 254 0 254 254 254 254 254 254 0
0 254 254 254 254 0 254 254 254 254 254 254 0 254 254 254 254 254 254 0
0 0 0 0 0 0 0 0 0 0 0 0 0 0 0 0 0 0 0 0
